src/Icon/svgs/EditOutline.svg

<svg width="24" height="24" viewBox="0 0 24 24" fill="none" xmlns="http://www.w3.org/2000/svg">
<path fill-rule="evenodd" clip-rule="evenodd" d="M13.5 7.91427L5 16.4143V19.0001H7.58579L16.0858 10.5001L13.5 7.91427ZM14.9142 6.50006L17.5 9.08584L18.2929 8.29295C19.0069 7.57891 19.0069 6.42121 18.2929 5.70716C17.5788 4.99312 16.4212 4.99312 15.7071 5.70716L14.9142 6.50006ZM4 21.0001C3.44772 21.0001 3 20.5523 3 20.0001V16.0001C3 15.7348 3.10536 15.4805 3.29289 15.293L14.2929 4.29295C15.788 2.79786 18.212 2.79786 19.7071 4.29295C21.2022 5.78804 21.2022 8.21207 19.7071 9.70716L8.70711 20.7072C8.51957 20.8947 8.26522 21.0001 8 21.0001H4Z" fill="#1B1C1D"/>
</svg>

<svg xmlns="http://www.w3.org/2000/svg" width="24" height="24" fill="none"><path fill-rule="evenodd" d="M13.5 7.914l-8.5 8.5V19h2.586l8.5-8.5L13.5 7.914zM14.914 6.5L17.5 9.086l.793-.793a1.83 1.83 0 0 0 0-2.586 1.83 1.83 0 0 0-2.586 0l-.793.793zM4 21a1 1 0 0 1-1-1v-4a1 1 0 0 1 .293-.707l11-11a3.83 3.83 0 0 1 5.414 0 3.83 3.83 0 0 1 0 5.414l-11 11A1 1 0 0 1 8 21H4z" fill="#1B1C1D"/></svg>
